assets/img/layer.svg

<svg height="100" viewBox="0 0 900 100" width="900" xmlns="http://www.w3.org/2000/svg"><path d="m0 74 21.5-1.8c21.5-1.9 64.5-5.5 107.3-5.5 42.9 0 85.5 3.6 128.4 5.5 42.8 1.8 85.8 1.8 128.6 1.6 42.9-.1 85.5-.5 128.4 2.9 42.8 3.3 85.8 10.3 128.6 11.6 42.9 1.4 85.5-3 128.4-4.1 42.8-1.2 85.8.8 107.3 1.8l21.5 1v14h-21.5c-21.5 0-64.5 0-107.3 0-42.9 0-85.5 0-128.4 0-42.8 0-85.8 0-128.6 0-42.9 0-85.5 0-128.4 0-42.8 0-85.8 0-128.6 0-42.9 0-85.5 0-128.4 0-42.8 0-85.8 0-107.3 0h-21.5z" fill="#fff" stroke-linecap="round"/></svg>

<svg id="visual" viewBox="0 0 900 100" width="900" height="100" xmlns="http://www.w3.org/2000/svg" xmlns:xlink="http://www.w3.org/1999/xlink" version="1.1"><path d="M0 74L21.5 72.2C43 70.3 86 66.7 128.8 66.7C171.7 66.7 214.3 70.3 257.2 72.2C300 74 343 74 385.8 73.8C428.7 73.7 471.3 73.3 514.2 76.7C557 80 600 87 642.8 88.3C685.7 89.7 728.3 85.3 771.2 84.2C814 83 857 85 878.5 86L900 87L900 101L878.5 101C857 101 814 101 771.2 101C728.3 101 685.7 101 642.8 101C600 101 557 101 514.2 101C471.3 101 428.7 101 385.8 101C343 101 300 101 257.2 101C214.3 101 171.7 101 128.8 101C86 101 43 101 21.5 101L0 101Z" fill="#FFFFFF" stroke-linecap="round" stroke-linejoin="miter"></path></svg>
